resources/svg/phone-horizontal.svg

<svg xmlns="http://www.w3.org/2000/svg" viewBox="0 0 24 24" fill="currentColor"><path fill-rule="evenodd" clip-rule="evenodd" d="M23 7C23 5.89543 22.1046 5 21 5H3C1.89543 5 1 5.89543 1 7V17C1 18.1046 1.89543 19 3 19H21C22.1046 19 23 18.1046 23 17V7ZM21 12.9957V17H3V7H21V11.0043C20.9691 11.0015 20.9379 11 20.9062 11H19.9062C19.354 11 18.9062 11.4477 18.9062 12C18.9062 12.5523 19.354 13 19.9062 13H20.9062C20.9379 13 20.9691 12.9985 21 12.9957Z" fill="black"/></svg>

<svg viewBox="0 0 24 24"><g fill="none"><path fill-rule="evenodd" clip-rule="evenodd" d="M23 7a2 2 0 0 0-2-2H3a2 2 0 0 0-2 2v10a2 2 0 0 0 2 2h18a2 2 0 0 0 2-2V7zm-2 5.996V17H3V7h18v4.004a1.038 1.038 0 0 0-.094-.004h-1a1 1 0 0 0 0 2h1c.032 0 .063-.002.094-.004z" fill="currentColor"/></g></svg>
